svgs/thin/person-booth.svg

<svg xmlns="http://www.w3.org/2000/svg" viewBox="0 0 576 512"><!--! Font Awesome Pro 6.3.0 by @fontawesome - https://fontawesome.com License - https://fontawesome.com/license (Commercial License) Copyright 2023 Fonticons, Inc. --><path d="M64 136c28.71 0 52-23.29 52-52S92.71 32 64 32S12 55.29 12 84S35.29 136 64 136zM64 48c19.85 0 36 16.15 36 36S83.85 120 64 120c-19.85 0-36-16.15-36-36S44.15 48 64 48zM224 224H173.1L127.9 178.8C115.8 166.6 99.75 160 82.75 160H64C46.88 160 30.75 166.8 18.75 178.8c-12 12.12-18.72 28.22-18.72 45.35L0 480c0 17.75 14.25 32 31.88 32s32-14.25 32-32L64 379.3c.875 .5 1.625 1.375 2.5 1.75L95.63 424V480c0 17.75 14.25 32 32 32c17.62 0 32-14.25 32-32v-56.5c0-9.875-2.375-19.75-6.75-28.62l-41.13-61.25V253l20.88 20.88C141.8 283 153.8 288 166.5 288H224c17.75 0 32-14.25 32-32S241.8 224 224 224zM224 272H166.5c-8.463 0-16.47-3.352-22.56-9.439L123.1 241.7C120 238.6 115.9 237 111.7 237c-2.061 0-4.139 .3984-6.119 1.219C99.65 240.7 95.75 246.5 95.75 253v80.63c0 3.176 .9453 6.281 2.717 8.92l40.49 60.3c3.059 6.529 4.67 13.65 4.67 20.65V480c0 8.822-7.178 16-16 16c-8.971 0-16-7.027-16-16v-56c0-3.199-.959-6.324-2.752-8.973l-29.12-43c-1.309-1.932-3.018-3.545-5.002-4.738c-.832-.627-2.184-1.574-2.805-1.93C69.48 363.1 66.74 363.3 64 363.3c-2.77 0-5.541 .7187-8.021 2.156C51.05 368.3 48.01 373.5 48 379.2L47.88 480c0 8.822-7.115 16-15.94 16C23.18 496 16 488.8 16 480V224.1c0-12.8 5.016-24.92 14.06-34.06C39.13 180.1 51.19 176 64 176h18.75c12.73 0 24.74 4.994 33.81 14.06l45.25 45.25C164.8 238.3 168.9 240 173.1 240H224c8.973 0 16 7.027 16 16S232.1 272 224 272zM232 320C227.6 320 224 323.6 224 328v176C224 508.4 227.6 512 232 512s8-3.578 8-8v-176C240 323.6 236.4 320 232 320zM296 8C296 3.578 292.4 0 288 0H264C241.9 0 224 17.94 224 40v144C224 188.4 227.6 192 232 192S240 188.4 240 184v-144c0-13.23 10.78-24 24-24H288C292.4 16 296 12.42 296 8zM536 0H512c-4.406 0-8 3.578-8 8v432c0 4.422 3.594 8 8 8s8-3.578 8-8V16h16c13.22 0 24 10.77 24 24v464c0 4.422 3.594 8 8 8S576 508.4 576 504V40C576 17.94 558.1 0 536 0zM448 0c-4.406 0-8 3.578-8 8v432c0 4.422 3.594 8 8 8s8-3.578 8-8V8C456 3.578 452.4 0 448 0zM384 0c-4.406 0-8 3.578-8 8v432c0 4.422 3.594 8 8 8s8-3.578 8-8V8C392 3.578 388.4 0 384 0zM320 0c-4.406 0-8 3.578-8 8l.125 246.6l-32 184c-.75 4.359 2.156 8.5 6.5 9.25C287.1 447.1 287.6 448 288 448c3.812 0 7.219-2.734 7.875-6.625L328 256V8C328 3.578 324.4 0 320 0z"/></svg>

<svg xmlns="http://www.w3.org/2000/svg" viewBox="0 0 576 512"><!-- Font Awesome Pro 6.0.0-alpha2 by @fontawesome - https://fontawesome.com License - https://fontawesome.com/license (Commercial License) --><path d="M64 136C92.709 136 116 112.709 116 84S92.709 32 64 32S12 55.291 12 84S35.291 136 64 136ZM64 48C83.852 48 100 64.15 100 84S83.852 120 64 120C44.15 120 28 103.85 28 84S44.15 48 64 48ZM224 224H173.125L127.875 178.75C115.75 166.625 99.75 160 82.75 160H64C46.875 160 30.75 166.75 18.75 178.75C6.75 190.875 0 207 0 224.125L0.25 320L0 480C0 497.75 14.25 512 31.875 512S63.875 497.75 63.875 480L64 379.25C64.875 379.75 65.625 380.625 66.5 381L95.625 424V480C95.625 497.75 109.875 512 127.625 512C145.25 512 159.625 497.75 159.625 480V423.5C159.625 413.625 157.25 403.75 152.875 394.875L111.75 333.625V253L132.625 273.875C141.75 283 153.75 288 166.5 288H224C241.75 288 256 273.75 256 256S241.75 224 224 224ZM224 272H166.5C158.037 272 150.025 268.648 143.939 262.561L123.064 241.686C120.002 238.625 115.91 237 111.746 237C109.686 237 107.607 237.398 105.627 238.219C99.648 240.695 95.75 246.529 95.75 253V333.625C95.75 336.801 96.695 339.906 98.467 342.545L138.955 402.846C142.014 409.375 143.625 416.494 143.625 423.5V480C143.625 488.822 136.447 496 127.625 496C118.654 496 111.625 488.973 111.625 480V424C111.625 420.801 110.666 417.676 108.873 415.027L79.748 372.027C78.439 370.096 76.73 368.482 74.746 367.289C73.914 366.662 72.563 365.715 71.941 365.359C69.48 363.953 66.74 363.25 64 363.25C61.23 363.25 58.459 363.969 55.979 365.406C51.047 368.264 48.008 373.529 48 379.23L47.875 480C47.875 488.822 40.697 496 31.875 496C23.121 496 16 488.822 16 480.025L16.25 319.959L16 224.125C16 211.324 21.016 199.207 30.064 190.064C39.133 180.994 51.186 176 64 176H82.75C95.484 176 107.492 180.994 116.562 190.064L161.812 235.314C164.812 238.314 168.883 240 173.125 240H224C232.973 240 240 247.027 240 256S232.973 272 224 272ZM232 320C227.594 320 224 323.578 224 328V504C224 508.422 227.594 512 232 512S240 508.422 240 504V328C240 323.578 236.406 320 232 320ZM296 8C296 3.578 292.406 0 288 0H264C241.938 0 224 17.938 224 40V184C224 188.422 227.594 192 232 192S240 188.422 240 184V40C240 26.766 250.781 16 264 16H288C292.406 16 296 12.422 296 8ZM536 0H512C507.594 0 504 3.578 504 8V440C504 444.422 507.594 448 512 448S520 444.422 520 440V16H536C549.219 16 560 26.766 560 40V504C560 508.422 563.594 512 568 512S576 508.422 576 504V40C576 17.938 558.062 0 536 0ZM448 0C443.594 0 440 3.578 440 8V440C440 444.422 443.594 448 448 448S456 444.422 456 440V8C456 3.578 452.406 0 448 0ZM384 0C379.594 0 376 3.578 376 8V440C376 444.422 379.594 448 384 448S392 444.422 392 440V8C392 3.578 388.406 0 384 0ZM320 0C315.594 0 312 3.578 312 8L312.125 254.625L280.125 438.625C279.375 442.984 282.281 447.125 286.625 447.875C287.094 447.969 287.562 448 288 448C291.812 448 295.219 445.266 295.875 441.375L328 256V8C328 3.578 324.406 0 320 0Z"/></svg>
